!!!COM: Hugo Wolf
!!!CNT: Deutscher
!!!TXO: Deutsche 
!!!OTL: Hochbeglu2ckt in Deiner Liebe
!!!ODT: 1889/01/23
!!!ONM: No. 40
!!!LYR: Johann Wolfgang von Goethe
!!!ENC: Brian Bice
!!!YOR: 45 Songs on Poems of Goethe and Eichendorff, Dover Publications, 1995
!!NB: Vocal melody and text only encoded.
**kern	**silbe
*clefG2	*
*k[b-e-]	*
*M4/4	*
=11	=11
{4.ff	{Hoch
8ff	be-
4een	-glu2ckt
4ee-	in
=12	=12
4dd	dei-
4cc	-ner
4cc-	Lie-
4b-	-be
=13	=13
4b-	schelt
4b-	ich
4b-	nicht
4gg	Ge-
=14	=14
4.gg	-le-
8cc	-gen-
2cc}	-heit,}
=16	=16
{4bn	{ward
4cc	sie
4dd	gleich
4ff	an
=17	=17
4bn	dir
4cc	zum
4gg	Die-
4ff	-be,
=18	=18
4een	wie
4dd	mich
4cc	solch
8een	ein
8dd	|
=19	=19
[1cc	Raub
=20	=20
2.cc]	|
4en	er-
=21	=21
2f}	-freut!}
2r	.
=23	=23
{4cc	{Und
4cc	wo-
4cc	-zu
4cc	denn
=24	=24
4.cc	auch
8ee-	be-
4b-	-rau-
4f	-ben?
=26	=26
4b-	Gib
4bn	dich
4cc	mir
4dd-	aus
=27	=27
4ddn	frei-
4ee-	-er
(8een	Wahl;
[4.ff)	|
=28	=28
2ff]}	|}
2r	.
=29	=29
{4b-	{gar
4gg	zu
4.ff	ger-
8cc-	-ne
=30	=30
4b-	mo2cht
4ee-	ich
4.dd	glau-
8dd-	-ben:
=31	=31
4r	.
4een	ja,
4r	.
8aa	ich
8gg	|
=32	=32
4.ff	bin's
8dd	die
4cc	dich
4b-	be-
=33	=33
[1gg	-stahl.
=34	=34
1gg_	|
=35	=35
4gg]}	|}
4r	.
2r	.
=37	=37
{4dd	{Was
4ff	so
4een	wil-
4ee-	-lig
=38	=38
4dd	du
4cc	ge-
4cc-	-ge-
4b-	-ben,
=39	=39
4b-	bringt
4b-	dir
4.gg	herr-
8gg	-li-
=40	=40
4gg	-chen
4gg	Ge-
2cc}	-winn;}
=42	=42
{4bn	{mei-
4cc	-ne
4dd	Ruh,
4ff	mein
=43	=43
4bn	rei-
4cc	-ches
4gg	Le-
4ff	-ben
=44	=44
4een	geb
4dd	ich
4cc	freu-
8een	-dig,
8dd	|
=45	=45
[1cc	nimm
=46	=46
2.cc]	|
4en	es
=47	=47
2f}	hin!}
2r	.
=49	=49
4r	.
{2cc	{Scher-
4g-	-ze
=50	=50
2.f	nicht!
4r	.
=51	=51
4r	.
2ee-	Nichts
8dd	von
8cc	Ver-
=52	=52
2g-	-ar-
4f}	-men!}
4r	.
=53	=53
{4b-	{Macht
4bn	uns
4cc	nicht
4dd-	die
=54	=54
4ddn	Lie-
4ee-	-be
(8een	reich?
[4.ff)	|
=55	=55
2ff]}	|}
2r	.
=56	=56
{4b-	{Halt
4gg	ich
4.ff	dich
8cc-	in
=57	=57
4b-	mei-
4ee-	-nen
4.dd	Ar-
8cc#}	-men,}
=58	=58
4r	.
{[4een	{je-
8een]	|
8ff	|
8aa	-dem
8gg	|
=59	=59
4ff	Glu2ck
4b-	ist
[2gg	mei-
=60	=60
1gg_	|
=61	=61
2.gg]	|
4ff	-nes
=62	=62
2b-}	gleich.}
2r	.
*-	*-
